resources/icons/16px/data-search.svg

<svg width="16" height="16" viewBox="0 0 16 16" fill="none" xmlns="http://www.w3.org/2000/svg">
<path d="M13 2C13 3.1 10.31 4 7 4C3.68 4 1 3.1 1 2C1 0.9 3.68 0 7 0C10.31 0 13 0.9 13 2Z" fill="black"/>
<path d="M1 8V3.52C2.22 4.4 4.44 5 7 5C9.56 5 11.78 4.4 13 3.52V5.99964C12.1643 5.37195 11.1256 5 10 5C7.27678 5 5.06204 7.17706 5.00128 9.88569C2.67183 9.61007 1 8.86719 1 8Z" fill="black"/>
<path d="M1 9.52C1.90176 10.1704 3.34985 10.6679 5.07776 10.8832C5.49485 13.2234 7.53995 15 10 15C10.6442 15 11.2613 14.8777 11.8282 14.6549L12.1795 15.0077C11.1371 15.6001 9.2063 16 7 16C3.69 16 1 15.1 1 14V9.52Z" fill="black"/>
<path d="M14.29 15.7101L12.0344 13.4447C11.4384 13.7975 10.7428 14 10 14C8.12755 14 6.5556 12.7134 6.11994 10.9761C6.0416 10.6637 6 10.3367 6 10L6.0001 9.97217C6.01506 7.77584 7.80015 6 10 6C11.1947 6 12.2671 6.52376 13 7.35418C13.6224 8.05931 14 8.98555 14 10C14 10.7429 13.7975 11.4385 13.4446 12.0346L15.71 14.2901C15.89 14.4701 16 14.7201 16 15.0001C16 15.5501 15.55 16.0001 15 16.0001C14.72 16.0001 14.47 15.8901 14.29 15.7101ZM10 12C11.0768 12 11.9548 11.1491 11.9983 10.083C11.9994 10.0555 12 10.0278 12 10C12 9.70996 11.9383 9.43434 11.8272 9.18557C11.5153 8.48692 10.8145 8 10 8C8.90471 8 8.01509 8.88041 8.00019 9.97215L8 10C8 10.3447 8.08719 10.669 8.24072 10.9521C8.5792 11.5762 9.2401 12 10 12Z" fill="black"/>
</svg>

<svg xmlns="http://www.w3.org/2000/svg" viewBox="0 0 16 16">
  <path d="M13 2c0 1.1-2.69 2-6 2-3.32 0-6-.9-6-2s2.68-2 6-2c3.31 0 6 .9 6 2"/>
  <path d="M1 8V3.52C2.22 4.4 4.44 5 7 5s4.78-.6 6-1.48V6a5 5 0 0 0-7.999 3.886C2.671 9.61 1 8.867 1 8M1 9.52c.902.65 2.35 1.148 4.078 1.363a5 5 0 0 0 6.75 3.772l.352.353C11.137 15.6 9.206 16 7 16c-3.31 0-6-.9-6-2z"/>
  <path d="m14.29 15.71-2.256-2.265A4.002 4.002 0 0 1 6 10v-.028a4 4 0 1 1 7.445 2.063l2.265 2.255a1.003 1.003 0 0 1-1.42 1.42M10 12a2 2 0 1 0-2-2.028V10a2 2 0 0 0 2 2"/>
</svg>
